Numix-Circle/48x48/apps/factorio.svg

<?xml version="1.0" encoding="UTF-8" standalone="no"?>
<!-- Generator: Adobe Illustrator 18.1.0, SVG Export Plug-In . SVG Version: 6.00 Build 0)  -->

<svg
   xmlns:dc="http://purl.org/dc/elements/1.1/"
   xmlns:cc="http://creativecommons.org/ns#"
   xmlns:rdf="http://www.w3.org/1999/02/22-rdf-syntax-ns#"
   xmlns:svg="http://www.w3.org/2000/svg"
   xmlns="http://www.w3.org/2000/svg"
   xmlns:xlink="http://www.w3.org/1999/xlink"
   xmlns:sodipodi="http://sodipodi.sourceforge.net/DTD/sodipodi-0.dtd"
   xmlns:inkscape="http://www.inkscape.org/namespaces/inkscape"
   version="1.1"
   id="Ebene_1"
   x="0px"
   y="0px"
   viewBox="403.1 279.8 48 48"
   enable-background="new 403.1 279.8 48 48"
   xml:space="preserve"
   inkscape:version="0.91 r13725"
   width="100%"
   height="100%"
   sodipodi:docname="factorio.svg"><metadata
     id="metadata38"><rdf:RDF><cc:Work
         rdf:about=""><dc:format>image/svg+xml</dc:format><dc:type
           rdf:resource="http://purl.org/dc/dcmitype/StillImage" /></cc:Work></rdf:RDF></metadata><defs
     id="defs36"><linearGradient
       gradientTransform="matrix(0,-12.4017,-12.4017,0,7505.7695,595.28)"
       y2="570.82208"
       x2="25.435301"
       y1="570.82208"
       x1="21.646999"
       gradientUnits="userSpaceOnUse"
       id="SVGID_1_"><stop
         id="stop14"
         style="stop-color:#3D3D3D"
         offset="0" /><stop
         id="stop16"
         style="stop-color:#474747"
         offset="1" /></linearGradient><linearGradient
       inkscape:collect="always"
       xlink:href="#SVGID_1_"
       id="linearGradient20933"
       gradientUnits="userSpaceOnUse"
       gradientTransform="matrix(0,-1,1,0,403.1,327.8)"
       x1="1"
       x2="47" /></defs><sodipodi:namedview
     pagecolor="#ffffff"
     bordercolor="#666666"
     borderopacity="1"
     objecttolerance="10"
     gridtolerance="10"
     guidetolerance="10"
     inkscape:pageopacity="0"
     inkscape:pageshadow="2"
     inkscape:window-width="1366"
     inkscape:window-height="713"
     id="namedview34"
     showgrid="false"
     inkscape:zoom="8"
     inkscape:cx="28.271652"
     inkscape:cy="21.131284"
     inkscape:window-x="0"
     inkscape:window-y="28"
     inkscape:window-maximized="1"
     inkscape:current-layer="Ebene_1"
     showguides="false"><inkscape:grid
       type="xygrid"
       id="grid21010" /></sodipodi:namedview><path
     id="path19548"
     d="m 439.41,284.8 c 5.859,4.062 9.688,10.831 9.688,18.5 0,12.426 -10.07,22.5 -22.5,22.5 -7.669,0 -14.438,-3.828 -18.5,-9.688 1.037,1.822 2.306,3.499 3.781,4.969 4.085,3.712 9.514,5.969 15.469,5.969 12.703,0 23,-10.298 23,-23 0,-5.954 -2.256,-11.384 -5.969,-15.469 -1.469,-1.475 -3.147,-2.744 -4.969,-3.781 z m 4.969,3.781 c 3.854,4.113 6.219,9.637 6.219,15.719 0,12.703 -10.297,23 -23,23 -6.081,0 -11.606,-2.364 -15.719,-6.219 4.16,4.144 9.883,6.719 16.219,6.719 12.703,0 23,-10.298 23,-23 0,-6.335 -2.575,-12.06 -6.719,-16.219 z"
     inkscape:connector-curvature="0"
     style="opacity:0.05" /><path
     id="path19550"
     d="m 444.38,288.581 c 3.712,4.085 5.969,9.514 5.969,15.469 0,12.703 -10.297,23 -23,23 -5.954,0 -11.384,-2.256 -15.469,-5.969 4.113,3.854 9.637,6.219 15.719,6.219 12.703,0 23,-10.298 23,-23 0,-6.081 -2.364,-11.606 -6.219,-15.719 z"
     inkscape:connector-curvature="0"
     style="opacity:0.1" /><path
     id="path19552"
     d="m 434.35,282.175 c 8.615,3.154 14.75,11.417 14.75,21.13 0,12.426 -10.07,22.5 -22.5,22.5 -9.708,0 -17.971,-6.135 -21.12,-14.75 a 23,23 0 0 0 44.875,-7 23,23 0 0 0 -16,-21.875 z"
     inkscape:connector-curvature="0"
     style="opacity:0.2" /><path
     id="path19556"
     d="m 427.1,280.8 c 12.703,0 23,10.297 23,23 0,12.703 -10.297,23 -23,23 -12.703,0 -23,-10.297 -23,-23 0,-12.703 10.297,-23 23,-23 z"
     inkscape:connector-curvature="0"
     style="fill:url(#linearGradient20933);fill-opacity:1.0" /><path
     id="path19618"
     d="m 443.13,287.331 c 3.712,4.084 5.969,9.514 5.969,15.469 0,12.703 -10.297,23 -23,23 -5.954,0 -11.384,-2.256 -15.469,-5.969 4.178,4.291 10.01,6.969 16.469,6.969 12.703,0 23,-10.298 23,-23 0,-6.462 -2.677,-12.291 -6.969,-16.469 z"
     inkscape:connector-curvature="0"
     style="opacity:0.1" /><path
     id="path4816"
     d="m 426.10001,291.79999 0,2.19141 a 11,11 0 0 0 -4.23243,1.74804 l -1.54492,-1.54687 -2.83008,2.83008 1.55274,1.55078 a 11,11 0 0 0 -1.75586,4.22656 l -2.18945,0 0,4 2.1914,0 a 11,11 0 0 0 1.74805,4.23242 l -1.54688,1.54492 2.83008,2.83008 1.55078,-1.55273 a 11,11 0 0 0 4.22657,1.75586 l 0,2.18945 4,0 0,-2.19141 a 11,11 0 0 0 4.23242,-1.74804 l 1.54492,1.54687 2.83008,-2.83008 -1.55274,-1.55078 a 11,11 0 0 0 1.75586,-4.22656 l 2.18946,0 0,-4 -2.19141,0 a 11,11 0 0 0 -1.74805,-4.23242 l 1.54688,-1.54492 -2.83008,-2.83008 -1.55078,1.55273 a 11,11 0 0 0 -4.22656,-1.75586 l 0,-2.18945 -4,0 z m 2,5 a 8,8 0 0 1 8,8 8,8 0 0 1 -8,8 8,8 0 0 1 -8,-8 8,8 0 0 1 8,-8 z"
     style="opacity:1;fill:#000000;fill-opacity:0.09803922;fill-rule:nonzero;stroke:none;stroke-width:1.62162161;stroke-miterlimit:4;stroke-dasharray:none;stroke-dashoffset:0;stroke-opacity:1"
     inkscape:connector-curvature="0" /><path
     style="opacity:1;fill:#c46231;fill-opacity:1;fill-rule:nonzero;stroke:none;stroke-width:1.62162161;stroke-miterlimit:4;stroke-dasharray:none;stroke-dashoffset:0;stroke-opacity:1"
     d="M 22 11 L 22 13.191406 A 11 11 0 0 0 17.767578 14.939453 L 16.222656 13.392578 L 13.392578 16.222656 L 14.945312 17.773438 A 11 11 0 0 0 13.189453 22 L 11 22 L 11 26 L 13.191406 26 A 11 11 0 0 0 14.939453 30.232422 L 13.392578 31.777344 L 16.222656 34.607422 L 17.773438 33.054688 A 11 11 0 0 0 22 34.810547 L 22 37 L 26 37 L 26 34.808594 A 11 11 0 0 0 30.232422 33.060547 L 31.777344 34.607422 L 34.607422 31.777344 L 33.054688 30.226562 A 11 11 0 0 0 34.810547 26 L 37 26 L 37 22 L 34.808594 22 A 11 11 0 0 0 33.060547 17.767578 L 34.607422 16.222656 L 31.777344 13.392578 L 30.226562 14.945312 A 11 11 0 0 0 26 13.189453 L 26 11 L 22 11 z M 24 16 A 8 8 0 0 1 32 24 A 8 8 0 0 1 24 32 A 8 8 0 0 1 16 24 A 8 8 0 0 1 24 16 z "
     transform="translate(403.10001,279.79999)"
     id="path4764" /></svg>

<!-- Generator: Adobe Illustrator 18.1.0, SVG Export Plug-In . SVG Version: 6.00 Build 0)  -->
<svg xmlns="http://www.w3.org/2000/svg" viewBox="403.1 279.8 48 48" style="enable-background:new 403.1 279.8 48 48">
 <defs>
  <linearGradient id="linearGradient20933" gradientUnits="userSpaceOnUse" gradientTransform="matrix(0,-1,1,0,403.1,327.8)" x1="1" x2="47">
   <stop style="stop-color:#3d3d3d"/>
   <stop offset="1" style="stop-color:#474747"/>
  </linearGradient>
 </defs>
 <path d="m 439.41 284.8 c 5.859 4.062 9.688 10.831 9.688 18.5 0 12.426 -10.07 22.5 -22.5 22.5 -7.669 0 -14.438 -3.828 -18.5 -9.688 1.037 1.822 2.306 3.499 3.781 4.969 4.085 3.712 9.514 5.969 15.469 5.969 12.703 0 23 -10.298 23 -23 0 -5.954 -2.256 -11.384 -5.969 -15.469 -1.469 -1.475 -3.147 -2.744 -4.969 -3.781 z m 4.969 3.781 c 3.854 4.113 6.219 9.637 6.219 15.719 0 12.703 -10.297 23 -23 23 -6.081 0 -11.606 -2.364 -15.719 -6.219 4.16 4.144 9.883 6.719 16.219 6.719 12.703 0 23 -10.298 23 -23 0 -6.335 -2.575 -12.06 -6.719 -16.219 z" style="opacity:0.05"/>
 <path d="m 444.38 288.58 c 3.712 4.085 5.969 9.514 5.969 15.469 0 12.703 -10.297 23 -23 23 -5.954 0 -11.384 -2.256 -15.469 -5.969 4.113 3.854 9.637 6.219 15.719 6.219 12.703 0 23 -10.298 23 -23 0 -6.081 -2.364 -11.606 -6.219 -15.719 z" style="opacity:0.1"/>
 <path d="m 434.35 282.18 c 8.615 3.154 14.75 11.417 14.75 21.13 0 12.426 -10.07 22.5 -22.5 22.5 -9.708 0 -17.971 -6.135 -21.12 -14.75 a 23 23 0 0 0 44.875 -7 23 23 0 0 0 -16 -21.875 z" style="opacity:0.2"/>
 <path d="m 427.1 280.8 c 12.703 0 23 10.297 23 23 0 12.703 -10.297 23 -23 23 -12.703 0 -23 -10.297 -23 -23 0 -12.703 10.297 -23 23 -23 z" style="fill:url(#linearGradient20933);fill-opacity:1"/>
 <path d="m 443.13 287.33 c 3.712 4.084 5.969 9.514 5.969 15.469 0 12.703 -10.297 23 -23 23 -5.954 0 -11.384 -2.256 -15.469 -5.969 4.178 4.291 10.01 6.969 16.469 6.969 12.703 0 23 -10.298 23 -23 0 -6.462 -2.677 -12.291 -6.969 -16.469 z" style="opacity:0.1"/>
 <path d="m 426.1 291.8 0 2.191 a 11 11 0 0 0 -4.232 1.748 l -1.545 -1.547 -2.83 2.83 1.553 1.551 a 11 11 0 0 0 -1.756 4.227 l -2.189 0 0 4 2.191 0 a 11 11 0 0 0 1.748 4.232 l -1.547 1.545 2.83 2.83 1.551 -1.553 a 11 11 0 0 0 4.227 1.756 l 0 2.189 4 0 0 -2.191 a 11 11 0 0 0 4.232 -1.748 l 1.545 1.547 2.83 -2.83 -1.553 -1.551 a 11 11 0 0 0 1.756 -4.227 l 2.189 0 0 -4 -2.191 0 a 11 11 0 0 0 -1.748 -4.232 l 1.547 -1.545 -2.83 -2.83 -1.551 1.553 a 11 11 0 0 0 -4.227 -1.756 l 0 -2.189 -4 0 z m 2 5 a 8 8 0 0 1 8 8 8 8 0 0 1 -8 8 8 8 0 0 1 -8 -8 8 8 0 0 1 8 -8 z" style="fill:#000;opacity:1;fill-opacity:0.098;stroke:none;fill-rule:nonzero"/>
 <path d="m 22 11 l 0 2.191 a 11 11 0 0 0 -4.232 1.748 l -1.545 -1.547 l -2.83 2.83 l 1.553 1.551 a 11 11 0 0 0 -1.756 4.227 l -2.189 0 l 0 4 l 2.191 0 a 11 11 0 0 0 1.748 4.232 l -1.547 1.545 l 2.83 2.83 l 1.551 -1.553 a 11 11 0 0 0 4.227 1.756 l 0 2.189 l 4 0 l 0 -2.191 a 11 11 0 0 0 4.232 -1.748 l 1.545 1.547 l 2.83 -2.83 l -1.553 -1.551 a 11 11 0 0 0 1.756 -4.227 l 2.189 0 l 0 -4 l -2.191 0 a 11 11 0 0 0 -1.748 -4.232 l 1.547 -1.545 l -2.83 -2.83 l -1.551 1.553 a 11 11 0 0 0 -4.227 -1.756 l 0 -2.189 l -4 0 z m 2 5 a 8 8 0 0 1 8 8 a 8 8 0 0 1 -8 8 a 8 8 0 0 1 -8 -8 a 8 8 0 0 1 8 -8 z" transform="translate(403.10001,279.79999)" style="fill:#c46231;opacity:1;fill-opacity:1;stroke:none;fill-rule:nonzero"/>
</svg>
